www/assets/icons/workspaces.svg

<svg xmlns="http://www.w3.org/2000/svg" width="24" height="24" viewBox="0 0 24 24" fill='currentColor'><path d="M6 13c-2.2 0-4 1.8-4 4s1.8 4 4 4 4-1.8 4-4-1.8-4-4-4m6-10C9.8 3 8 4.8 8 7s1.8 4 4 4 4-1.8 4-4-1.8-4-4-4m6 10c-2.2 0-4 1.8-4 4s1.8 4 4 4 4-1.8 4-4-1.8-4-4-4"/></svg>

<svg width="24" height="24" viewBox="0 0 24 24" xmlns="http://www.w3.org/2000/svg" fill='currentColor'><path d="M6 13C3.8 13 2 14.8 2 17C2 19.2 3.8 21 6 21C8.2 21 10 19.2 10 17C10 14.8 8.2 13 6 13ZM12 3C9.8 3 8 4.8 8 7C8 9.2 9.8 11 12 11C14.2 11 16 9.2 16 7C16 4.8 14.2 3 12 3ZM18 13C15.8 13 14 14.8 14 17C14 19.2 15.8 21 18 21C20.2 21 22 19.2 22 17C22 14.8 20.2 13 18 13Z"/></svg>
